!! 00000] TT[WS
!!!OTL: Luo meihua
!!!ARE: Asia, China, Shanxi Dingxiang
!! Ethnic Group: Han
!! WII, 58 (2)
!!!SCT: J0482
!!!YEM: Copyright 1995, estate of Helmut Schaffrath.
**kern
*ICvox
*Ivox
*M4/4
*k[f#]
*G:
{4a
8a
8b
8a
8g
8e
16d
16e
=1
4.g
8f#
4.g
8r
=2
8gg
8ee
8dd
8ee
8cc
8ee
8dd
8cc}
=3
{4a
8a
8b
8a
8g
8e
16d
16e
=4
4.g
8f#
4.g
8r}
=5
{4a
8a
8g
4a
8a
8b
=6
2d
2dd
=7
8g
8g
8g
8a
8e
8d
8c
8A
=8
2.d
4r}
==
!!!AGN: Xiaodiao. Qingge, Sichun
!!!ONB: ESAC (Essen Associative Code) Database: CHINA
!!!AMT: simple quadruple
!!!AIN: vox
!!!EED: Helmut Schaffrath
!!!EEV: 1.0
*-
